X:19
T:Tommy's Tarbukas (ou Sparky)
C:Alasdair Fraser
M:4/4
L:1/8
R:reel
D:The Road North by Alasdair Fraser And Paul Machlis
D:Fire Dance by Richard Wood
D:Out The Gap by Sharon Shannon
D:Sneeze by Heyfeva
D:Spellbound by Sharon Shannon
K: Gmin
(3ABc|:d2 cd BGGB|AFcF dFcF|d2 cd BGGB|AFcA BGBc|
|d2 cd BGGB|AFcF dFcF|d2 Bd AFFA|1 Ggdc BGBc:|2 Ggdc BGGF|
|:DGBG EGcB|Acfe dbfd|DGBG EGcB|AfcA BGGF|
|DGBG EGcB|Acfe dbfd|fdBe cAFE|1 DG^FA BGG=F:|2 DG^FA BGBc|
K:EMIN %Transposed from GMIN
(3FGA|:B2 AB GEEG|FDAD BDAD|B2 AB GEEG|FDAF GEGA|
|B2 AB GEEG|FDAD BDAD|B2 GB FDDF|1 EeBA GEGA:|2 EeBA GEED|
|:B,EGE CEAG|FAdc BgdB|B,EGE CEAG|FdAF GEED|
|B,EGE CEAG|FAdc BgdB|dBGc AFDC|1 B,E^DF GEE=D:|2 B,E^DF GEGA|
